src/images/drop.svg

<svg width="16" height="21" viewBox="0 0 16 21" fill="none" xmlns="http://www.w3.org/2000/svg">
<path d="M7.99998 21C12.4112 21 16 17.3944 16 12.9625C16 11.1294 14.7122 8.41152 12.1724 4.88406C10.315 2.30462 8.43092 0.204714 8.41208 0.183818C8.30675 0.0667942 8.15712 0 8.00002 0C7.84297 0 7.69325 0.0667942 7.58792 0.183818C7.56913 0.204758 5.68502 2.30462 3.82767 4.88406C1.2878 8.41147 1.65091e-09 11.1294 1.65091e-09 12.9625C-8.88796e-05 17.3944 3.58871 21 7.99998 21ZM4.72208 5.54638C6.02966 3.72972 7.35101 2.15519 8.00007 1.40299C8.64792 2.15367 9.96554 3.72369 11.2721 5.53839C13.6383 8.82452 14.889 11.3918 14.889 12.9625C14.889 16.7789 11.7986 19.8838 7.99998 19.8838C4.20133 19.8838 1.11093 16.7789 1.11093 12.9625C1.11093 11.3931 2.35966 8.82863 4.72208 5.54638Z" fill="black"/>
</svg>

<svg xmlns="http://www.w3.org/2000/svg" fill="none" viewBox="0 0 16 21">
  <path fill="#000" d="M8 21c4.411 0 8-3.606 8-8.037 0-1.834-1.288-4.551-3.828-8.079a62.869 62.869 0 0 0-3.76-4.7.554.554 0 0 0-.824 0 62.89 62.89 0 0 0-3.76 4.7C1.288 8.411 0 11.13 0 12.963 0 17.393 3.589 21 8 21ZM4.722 5.546A62.63 62.63 0 0 1 8 1.403a62.54 62.54 0 0 1 3.272 4.135c2.366 3.287 3.617 5.854 3.617 7.425 0 3.816-3.09 6.92-6.889 6.92-3.799 0-6.89-3.104-6.89-6.92 0-1.57 1.25-4.134 3.612-7.417Z"/>
</svg>
